X:53
T:Capt. Carrick's Reel
S:Petrie's Second Collection of Strathspey Reels and Country Dances &c.
Z:Steve Wyrick , 6/11/04
N:Petrie's Second Collection, page 18
% Gore's Index gives earliest publication as Alexander MacGlashan's
% "A Coll. Of Str. R. ..." 1778
L:1/8
M:C|
R:Reel
K:D
D3F A/A/A (AF)|ABdA F2  FD |E2EF   B/B/B (BA)|dfed B2    (B/c/d) |
D3F A/A/A (AF)|ABdA F2 (FD)|(GFG)B FAdF      |EDEF B2    (BA)   ||
d3f d/d/d (dB)|ABdA F2 (FD)|e3f    e/e/e (ef)|gfed B/B/B (BA)    |
d3f d/d/d (dB)|ABdA F2  FD |GBeG   FAdF      |EDEF B2    (B/c/d)|]
